src/icons/hds/ui/person-male.svg

<svg xmlns="http://www.w3.org/2000/svg" width="24" height="24" viewBox="0 0 24 24">
  <g fill="none" fill-rule="evenodd">
    <polygon points="0 0 24 0 24 12 24 24 0 24"/>
    <path fill="currentColor" d="M11,16 L11,22 L13,22 L13,16 L15,16 L15,24 L9,24 L9,16 L11,16 Z M14.5,7 C16.3927259,7 17.9345493,8.50239169 17.9979705,10.3796751 L18,10.5 L18,16 L16,16 L16,10.5 C16,9.70115956 15.37554,9.04816956 14.5881364,9.00254635 L14.5,9 L9.5,9 C8.70115956,9 8.04816956,9.62445998 8.00254635,10.4118636 L8,10.5 L8,16 L6,16 L6,10.5 C6,8.60727414 7.50239169,7.06545066 9.37967512,7.00202951 L9.5,7 L14.5,7 Z M12,0 C13.6568542,0 15,1.34314575 15,3 C15,4.65685425 13.6568542,6 12,6 C10.3431458,6 9,4.65685425 9,3 C9,1.34314575 10.3431458,0 12,0 Z M12,2 C11.4477153,2 11,2.44771525 11,3 C11,3.55228475 11.4477153,4 12,4 C12.5522847,4 13,3.55228475 13,3 C13,2.44771525 12.5522847,2 12,2 Z"/>
  </g>
</svg>

<svg viewBox="0 0 24 24" role="img" xmlns="http://www.w3.org/2000/svg"><g fill="none" fill-rule="evenodd"><path d="M0 0h24v24H0z"/><path d="M11 16v6h2v-6h2v8H9v-8h2zm3.5-9a3.5 3.5 0 013.498 3.38l.002.12V16h-2v-5.5a1.5 1.5 0 00-1.412-1.497L14.5 9h-5a1.5 1.5 0 00-1.497 1.412L8 10.5V16H6v-5.5a3.5 3.5 0 013.38-3.498L9.5 7h5zM12 0a3 3 0 110 6 3 3 0 010-6zm0 2a1 1 0 100 2 1 1 0 000-2z" fill="currentColor"/></g></svg>
